!!!COM: de Févin, Antoine
!!!CDT: ~1470//-~1511//
!!!OPR: Missa Ave Maria
!!!ONM: 2
!!!OTL: Gloria
!!!AGN: Mass; Gloria
!!!SCT: Fva1001b
!!!SCA: Fva1001b
!!!voices-OPR: 4
!!!voices: 4
**kern	**text	**kern	**text	**kern	**text	**kern	**text
*staff4	*staff4	*staff3	*staff3	*staff2	*staff2	*staff1	*staff1
*Ivox	*	*Ivox	*	*Ivox	*	*Ivox	*
*I"Bassus	*	*I"Tenor	*	*I"Altus	*	*I"Superius	*
*I'B	*	*I'T	*	*I'A	*	*I'S	*
*>[A,B,C]	*>[A,B,C]	*>[A,B,C]	*>[A,B,C]	*>[A,B,C]	*>[A,B,C]	*>[A,B,C]	*>[A,B,C]
*>A	*>A	*>A	*>A	*>A	*>A	*>A	*>A
*clefF4	*	*clefGv2	*	*clefGv2	*	*clefG2	*
*k[]	*	*k[]	*	*k[]	*	*k[]	*
*M2/1	*	*M2/1	*	*M2/1	*	*M2/1	*
*met(C|)	*	*met(C|)	*	*met(C|)	*	*met(C|)	*
!!section: Et in terra pax
!!!OMD: Et in terra pax
=1-	=1-	=1-	=1-	=1-	=1-	=1-	=1-
1r	.	0r	.	1G	Et	0r	.
1r	.	.	.	[1c	in	.	.
=2	=2	=2	=2	=2	=2	=2	=2
0r	.	0r	.	1c]	.	0r	.
.	.	.	.	1c	ter-	.	.
=3	=3	=3	=3	=3	=3	=3	=3
0r	.	0r	.	1d	-ra	1r	.
.	.	.	.	[1e	pax	1g	Et
=4	=4	=4	=4	=4	=4	=4	=4
0r	.	0r	.	2e\]	.	0cc	in
.	.	.	.	4d\	.	.	.
.	.	.	.	4c\	.	.	.
.	.	.	.	1f	ho-	.	.
=5	=5	=5	=5	=5	=5	=5	=5
0r	.	0r	.	2e\	-mi-	1cc	ter-
.	.	.	.	1f	-ni-	.	.
.	.	.	.	.	.	1dd	-ra
.	.	.	.	4e\	.	.	.
.	.	.	.	4d\	.	.	.
=6	=6	=6	=6	=6	=6	=6	=6
0r	.	0r	.	1c	-bus	1.ee	pax
.	.	.	.	1e	.	.	.
.	.	.	.	.	.	4dd\	.
.	.	.	.	.	.	4cc\	.
=7	=7	=7	=7	=7	=7	=7	=7
0r	.	0r	.	1d	.	1ff	ho-
.	.	.	.	2c\	.	2ee\	-mi-
.	.	.	.	[2d\	.	[2ff\	-ni-
=8	=8	=8	=8	=8	=8	=8	=8
0r	.	0r	.	2d\]	.	2ff\]	.
.	.	.	.	4c\	.	4ee\	.
.	.	.	.	4B\	.	4dd\	.
.	.	.	.	1A	.	1cc	-bus
=9	=9	=9	=9	=9	=9	=9	=9
0r	.	0r	.	2G/	.	1dd	.
.	.	.	.	2d\	bo-	.	.
.	.	.	.	2e\	-nae	2cc\	.
.	.	.	.	2f\	vo-	[2dd\	.
=10	=10	=10	=10	=10	=10	=10	=10
0r	.	0r	.	2d\	-lun-	2dd\]	.
.	.	.	.	1g	-ta-	4cc\	.
.	.	.	.	.	.	4b\	.
.	.	.	.	.	.	1a	.
.	.	.	.	2f#i\	.	.	.
=11	=11	=11	=11	=11	=11	=11	=11
0r	.	0r	.	1g	-tis.	2r	.
.	.	.	.	.	.	2g/	bo-
.	.	.	.	2f\	.	2a/	-nae
.	.	.	.	[2g\	.	2b\	vo-
=12	=12	=12	=12	=12	=12	=12	=12
0r	.	1r	.	2g\]	.	2g/	-lun-
.	.	.	.	4f\	.	1cc	-ta-
.	.	.	.	4e\	.	.	.
.	.	1G	Lau-	1d	.	.	.
.	.	.	.	.	.	2b\	.
=13	=13	=13	=13	=13	=13	=13	=13
1C	Lau-	1G	-da-	0c	.	0cc	-tis.
1C	-da-	1G	-mus	.	.	.	.
=14	=14	=14	=14	=14	=14	=14	=14
1C	-mus	1c	te.	0r	.	0r	.
1F	te.	2c\	Be-	.	.	.	.
.	.	[2d\	-ne-	.	.	.	.
=15	=15	=15	=15	=15	=15	=15	=15
2F\	Be-	2d\]	.	0r	.	0r	.
1G	-ne-	2d\	-di-	.	.	.	.
.	.	2e\	-ci-	.	.	.	.
2G\	-di-	2e\	-mus	.	.	.	.
=16	=16	=16	=16	=16	=16	=16	=16
2A\	-ci-	1c	te.	0r	.	0r	.
2A\	-mus	.	.	.	.	.	.
1F	te.	2r	.	.	.	.	.
.	.	2c\	A-	.	.	.	.
=17	=17	=17	=17	=17	=17	=17	=17
2r	.	1.f	-do-	0r	.	0r	.
2D\	A-	.	.	.	.	.	.
2A\	-do-	.	.	.	.	.	.
2B\	.	4e\	.	.	.	.	.
.	.	4d\	.	.	.	.	.
=18	=18	=18	=18	=18	=18	=18	=18
1c	-ra-	1e	.	0r	.	0r	.
2B\	.	2d\	-ra-	.	.	.	.
[2A\	.	[2c\	.	.	.	.	.
=19	=19	=19	=19	=19	=19	=19	=19
4A\]	.	2c\]	.	0r	.	1r	.
4G\	.	.	.	.	.	.	.
1G	.	2B\	.	.	.	.	.
.	.	1A	.	.	.	1r	.
2F#i\	.	.	.	.	.	.	.
=20	=20	=20	=20	=20	=20	=20	=20
2.G\	.	4G/	.	0r	.	0r	.
.	.	4A/	.	.	.	.	.
.	.	4B\	.	.	.	.	.
4A\	.	4c\	.	.	.	.	.
2B\	.	2d\	.	.	.	.	.
[2c\	.	[2e\	.	.	.	.	.
=21	=21	=21	=21	=21	=21	=21	=21
4c\]	.	4e\]	.	0r	.	0r	.
4B\	.	4f\	.	.	.	.	.
4A\	.	1g	.	.	.	.	.
4G\	.	.	.	.	.	.	.
1A	-mus	.	.	.	.	.	.
.	.	2f#i\	-mus	.	.	.	.
=22	=22	=22	=22	=22	=22	=22	=22
1G	te.	0g	te.	0r	.	1dd	Glo-
1r	.	.	.	.	.	1dd	-ri-
=23	=23	=23	=23	=23	=23	=23	=23
1G	Glo-	0r	.	1r	.	1dd	-fi-
1c	-ri-	.	.	1g	Glo-	1ee	-ca-
=24	=24	=24	=24	=24	=24	=24	=24
2B\	-fi-	0r	.	1g	-ri-	2dd\	.
2.c\	-ca-	.	.	.	.	2.ee\	-mus
.	.	.	.	1e	-fi-	.	.
4B\	.	.	.	.	.	4dd\	.
[2A\	.	.	.	.	.	[2cc\	te,
=25	=25	=25	=25	=25	=25	=25	=25
4A\]	.	1c	Glo-	1f	-ca-	4cc\]	.
4G\	.	.	.	.	.	4b\	.
4F\	.	.	.	.	.	4a/	.
4E\	.	.	.	.	.	4g/	.
2.F\	-mus	1c	-ri-	1f	-mus	1a	.
4E\	.	.	.	.	.	.	.
=26	=26	=26	=26	=26	=26	=26	=26
1C	te,	1c	-fi-	1e	te.	2r	.
.	.	.	.	.	.	2.g/	[glo-
2.G\	[glo-	[1d	-ca-	2d\	.	.	.
.	.	.	.	.	.	4a/	.
.	.	.	.	[2g\	.	4b\	.
4A\	.	.	.	.	.	4cc\	.
=27	=27	=27	=27	=27	=27	=27	=27
2B\	.	2d\]	.	4g\]	.	2dd\	.
.	.	.	.	4f\	.	.	.
2c\	.	2c\	.	4e\	.	1ee	-ri-
.	.	.	.	4d\	.	.	.
1A	-ri-	2e\	.	1c	.	.	.
.	.	2f\	.	.	.	4dd\	.
.	.	.	.	.	.	4cc\	.
=28	=28	=28	=28	=28	=28	=28	=28
2G\	-fi-	1g	.	2d\	.	2b\	-fi-
1c	-ca-	.	.	2e\	.	2.ee\	-ca-
.	.	2e\	.	2c\	.	.	.
.	.	.	.	.	.	4dd\	.
2B\	.	[2f\	.	2d\	.	[2dd\	-mus-
=29	=29	=29	=29	=29	=29	=29	=29
1A	.	4f\]	.	2e\	.	4dd\]	.
.	.	4e\	.	.	.	4cc\	.
.	.	4d\	.	2f\	.	1cc	.
.	.	4c\	.	.	.	.	.
1G	-mus	1d	-mus	1g	.	.	.
.	.	.	.	.	.	2b\	.
=30	=30	=30	=30	=30	=30	=30	=30
[0C	te.]	0c	te.	1e	.	0cc	-te.]
.	.	.	.	1r	.	.	.
=31	=31	=31	=31	=31	=31	=31	=31
0C]	.	0r	.	1.c	Gra-	1r	.
.	.	.	.	.	.	1cc	Gra-
.	.	.	.	2d\	-ti-	.	.
=32	=32	=32	=32	=32	=32	=32	=32
0r	.	0r	.	2e\	-as	1cc	-ti-
.	.	.	.	1f	a-	.	.
.	.	.	.	.	.	1dd	-as
.	.	.	.	4e\	-gi-	.	.
.	.	.	.	4d\	.	.	.
=33	=33	=33	=33	=33	=33	=33	=33
0r	.	0r	.	4c\	.	2.ee\	a-
.	.	.	.	4d\	.	.	.
.	.	.	.	4e\	.	.	.
.	.	.	.	4f\	.	4dd\	-gi-
.	.	.	.	2g\	-mus	2ee\	-mus
.	.	.	.	[2a\	ti-	[2ff\	ti-
=34	=34	=34	=34	=34	=34	=34	=34
0r	.	0r	.	4a\]	.	4ff\]	.
.	.	.	.	4g\	.	4ee\	.
.	.	.	.	4f\	.	1ee	.
.	.	.	.	4e\	.	.	.
.	.	.	.	1f	.	.	.
.	.	.	.	.	.	2dd\	.
=35	=35	=35	=35	=35	=35	=35	=35
0r	.	0r	.	0e	-bi	1ee	-bi
.	.	.	.	.	.	2r	.
.	.	.	.	.	.	2ee\	pro-
=36	=36	=36	=36	=36	=36	=36	=36
0r	.	0r	.	2r	.	2ee\	-pter
.	.	.	.	2g\	pro-	2ee\	ma-
.	.	.	.	2g\	-pter	2.ee\	-gnam
.	.	.	.	2g\	ma-	.	.
.	.	.	.	.	.	8dd\L	.
.	.	.	.	.	.	8cc\J	.
=37	=37	=37	=37	=37	=37	=37	=37
0r	.	0r	.	2g\	-gnam	4b\	.
.	.	.	.	.	.	4a/	.
.	.	.	.	4f\	glo-	4b\	.
.	.	.	.	4e\	.	4cc\	.
.	.	.	.	4d\	.	[1dd	.
.	.	.	.	4c\	.	.	.
.	.	.	.	4d\	.	.	.
.	.	.	.	4e\	.	.	.
=38	=38	=38	=38	=38	=38	=38	=38
1r	.	0r	.	2f\	.	2dd\]	.
.	.	.	.	2g\	-ri-	2dd\	glo-
1C	Do-	.	.	2e\	-am	2.ee\	-ri-
.	.	.	.	[2a\	tu-	.	.
.	.	.	.	.	.	4dd\	.
=39	=39	=39	=39	=39	=39	=39	=39
2C/	-mi-	0r	.	4a\]	.	2cc\	.
.	.	.	.	4g\	.	.	.
2C/	-ne	.	.	1g	.	2b\	.
1D	De-	.	.	.	.	2a/	-am
.	.	.	.	2f#i\	.	2a/	tu-
=40	=40	=40	=40	=40	=40	=40	=40
2.E\	-us,	1c	Do-	1g	-am.	1g	-am.
4D\	.	.	.	.	.	.	.
2E\	.	2c\	-mi-	1r	.	1r	.
[2F\	Rex	2c\	-ne	.	.	.	.
=41	=41	=41	=41	=41	=41	=41	=41
2F\]	.	1d	De-	0r	.	0r	.
4E\	cae-	.	.	.	.	.	.
4D\	.	.	.	.	.	.	.
4C/	.	2.e\	-us,	.	.	.	.
4D\	.	.	.	.	.	.	.
4E\	.	.	.	.	.	.	.
4F\	.	4d\	.	.	.	.	.
=42	=42	=42	=42	=42	=42	=42	=42
2G\	.	2e\	.	0r	.	0r	.
2.A\	-le-	2.f\	Rex	.	.	.	.
4G\	.	4e\	cae-	.	.	.	.
4F\	.	[2e\	-le-	.	.	.	.
4E\	.	.	.	.	.	.	.
=43	=43	=43	=43	=43	=43	=43	=43
1F	.	2e\]	.	0r	.	0r	.
.	.	2d\	.	.	.	.	.
[1E	-stis,	1e	-stis,	.	.	.	.
=44	=44	=44	=44	=44	=44	=44	=44
1E]	.	2r	.	0r	.	0r	.
.	.	2e\	De-	.	.	.	.
2r	.	2e\	-us	.	.	.	.
2G\	De-	2e\	Pa-	.	.	.	.
=45	=45	=45	=45	=45	=45	=45	=45
2G\	-us	2e\	-ter	0r	.	0r	.
2G\	Pa-	4d\	o-	.	.	.	.
.	.	4c\	.	.	.	.	.
2G\	-ter	4B\	.	.	.	.	.
.	.	4A/	.	.	.	.	.
4F\	.	4B\	.	.	.	.	.
4E\	.	4c\	.	.	.	.	.
=46	=46	=46	=46	=46	=46	=46	=46
2D\	.	2d\	.	0r	.	0r	.
2C/	o-	1e	-mni-	.	.	.	.
1G	-mni-	.	.	.	.	.	.
.	.	[2d\	.	.	.	.	.
=47	=47	=47	=47	=47	=47	=47	=47
2E\	.	4d\]	.	0r	.	0r	.
.	.	4c\	.	.	.	.	.
2F\	.	1c	.	.	.	.	.
1D	-po-	.	.	.	.	.	.
.	.	2B\	-po-	.	.	.	.
=48	=48	=48	=48	=48	=48	=48	=48
1C	-tens.	1c	-tens.	1r	.	1r	.
2r	.	2r	.	2r	.	2r	.
[2C/	Do-	[2c\	Do-	[2g\	Do-	[2ee\	Do-
=49	=49	=49	=49	=49	=49	=49	=49
2C/]	.	2c\]	.	2g\]	.	2ee\]	.
2C/	-mi-	2c\	-mi-	2g\	-mi-	2ee\	-mi-
2C/	-ne	2c\	-ne	2g\	-ne	2ee\	-ne
2C/	Fi-	2c\	Fi-	2g\	Fi-	2ee\	Fi-
=50	=50	=50	=50	=50	=50	=50	=50
1.F	-li	1.c	-li	1.a	-li	1.ff	-li
2C/	u-	2c\	u-	[2g\	u-	[2ee\	u-
=51	=51	=51	=51	=51	=51	=51	=51
2D\	-ni-	2A/	-ni-	2g\]	.	2ee\]	.
2BB/	-ge-	2B\	-ge-	2f\	-ni-	2dd\	-ni-
1C	-ni-	1G	-ni-	2e\	-ge-	2cc\	-ge-
.	.	.	.	2e\	-ni-	2cc\	-ni-
=52	=52	=52	=52	=52	=52	=52	=52
1G	-te	1G	-te	1d	-te	0b	-te
2r	.	2r	.	1r	.	.	.
2E\	Ie-	2G/	Ie-	.	.	.	.
=53	=53	=53	=53	=53	=53	=53	=53
1F	-su	1A	-su	0r	.	0r	.
1D	Chri-	1B	Chri-	.	.	.	.
=54	=54	=54	=54	=54	=54	=54	=54
1C	-ste,	1c	-ste,	2r	.	2r	.
.	.	.	.	2e\	Ie-	2g/	Ie-
1r	.	1r	.	1f	-su	1a	-su
=55	=55	=55	=55	=55	=55	=55	=55
0r	.	2r	.	1d	[Chri-	1b	Chri-
.	.	2G/	Ie-	.	.	.	.
.	.	2A/	-su	1c	-ste,]	1cc	-ste,
.	.	[2c\	Chri-	.	.	.	.
=56	=56	=56	=56	=56	=56	=56	=56
2r	.	2c\]	.	0r	.	0r	.
2G\	[Ie-	2B\	.	.	.	.	.
1A	-su	2c\	.	.	.	.	.
.	.	[2e\	.	.	.	.	.
=57	=57	=57	=57	=57	=57	=57	=57
1F	Chri-	2e\]	.	1r	.	1r	.
.	.	2d\	.	.	.	.	.
1E	-ste,]	1e	-ste,	2r	.	2r	.
.	.	.	.	2g\	[Ie-	2b\	Ie-
=58	=58	=58	=58	=58	=58	=58	=58
0r	.	2r	.	1a	-su]	1cc	-su
.	.	2A/	[Ie-	.	.	.	.
.	.	1B	-su	1f	Chri-	1dd	Chri-
=59	=59	=59	=59	=59	=59	=59	=59
1r	.	2.c\	Chri-	0e	-ste.	2.ee\	-ste,
.	.	4B\	.	.	.	4dd\	.
1E	[Ie-	1G	.	.	.	2b\	.
.	.	.	.	.	.	[2cc\	.
=60	=60	=60	=60	=60	=60	=60	=60
0F	-su	0A	.	1.c	.	4cc\]	.
.	.	.	.	.	.	4b\	.
.	.	.	.	.	.	4a/	.
.	.	.	.	.	.	4g/	.
.	.	.	.	.	.	1a	.
.	.	.	.	2d\	.	.	.
=61	=61	=61	=61	=61	=61	=61	=61
0E	Chri-	1B	.	1e	.	1g	.
.	.	1G	.	[1g	.	2r	.
.	.	.	.	.	.	[2gg\	[Ie-
=62	=62	=62	=62	=62	=62	=62	=62
0C	.	0c	.	1g]	.	4gg\]	.
.	.	.	.	.	.	4ff\	-su
.	.	.	.	.	.	1ee	Chri-
.	.	.	.	1g	.	.	.
.	.	.	.	.	.	4dd\	.
.	.	.	.	.	.	4cc\	.
=63	=63	=63	=63	=63	=63	=63	=63
0Gl	-ste.]	0dl	-ste.]	0gl	.	0bl	-ste.]
!!LO:LB:i:g=z
=||	=||	=||	=||	=||	=||	=||	=||
*>B	*>B	*>B	*>B	*>B	*>B	*>B	*>B
*clefF4	*	*clefGv2	*	*clefGv2	*	*clefG2	*
*k[]	*	*k[]	*	*k[]	*	*k[]	*
*M2/1	*	*M2/1	*	*M2/1	*	*M2/1	*
*met(C|)	*	*met(C|)	*	*met(C|)	*	*met(C|)	*
!!section: Domine deus agnus dei
!!!OMD: Domine deus agnus dei
0r	.	0r	.	1.d	Do-	0r	.
.	.	.	.	2d\	-mi-	.	.
=64	=64	=64	=64	=64	=64	=64	=64
0r	.	0r	.	1e	-ne	0r	.
.	.	.	.	1f	De-	.	.
=65	=65	=65	=65	=65	=65	=65	=65
1.G	Do-	0r	.	1.g	.	0r	.
2G\	-mi-	.	.	4f\	.	.	.
.	.	.	.	4e\	.	.	.
=66	=66	=66	=66	=66	=66	=66	=66
1A	-ne	0r	.	4f\	.	0r	.
.	.	.	.	4e\	.	.	.
.	.	.	.	4d\	.	.	.
.	.	.	.	4c\	.	.	.
1B	De-	.	.	1d	-us,	.	.
=67	=67	=67	=67	=67	=67	=67	=67
1.c	.	0r	.	2r	.	0r	.
.	.	.	.	2.c\	[Do-	.	.
.	.	.	.	4d\	.	.	.
4B\	.	.	.	4e\	.	.	.
4A\	.	.	.	4f\	.	.	.
=68	=68	=68	=68	=68	=68	=68	=68
2B\	.	0r	.	2g\	.	0r	.
2c\	.	.	.	1a	-mi-	.	.
1A	.	.	.	.	.	.	.
.	.	.	.	4g\	.	.	.
.	.	.	.	4f\	.	.	.
=69	=69	=69	=69	=69	=69	=69	=69
2.G\	.	0r	.	2e\	-ne	0r	.
.	.	.	.	2.d\	De-	.	.
4A\	.	.	.	.	.	.	.
4B\	.	.	.	.	.	.	.
4c\	.	.	.	4e\	.	.	.
2d\	.	.	.	4f\	.	.	.
.	.	.	.	4g\	.	.	.
=70	=70	=70	=70	=70	=70	=70	=70
4c\	.	0r	.	2a\	.	0r	.
4B\	.	.	.	.	.	.	.
4A\	.	.	.	1g	.	.	.
4G\	.	.	.	.	.	.	.
1A	.	.	.	.	.	.	.
.	.	.	.	2f#i\	.	.	.
=71	=71	=71	=71	=71	=71	=71	=71
0G	-us,	0r	.	1g	-us,]	0r	.
.	.	.	.	2r	.	.	.
.	.	.	.	2d\	A-	.	.
=72	=72	=72	=72	=72	=72	=72	=72
2r	.	0r	.	1.g	-gnus	0r	.
2G\	A-	.	.	.	.	.	.
[1c	-gnus	.	.	.	.	.	.
.	.	.	.	2f\	.	.	.
=73	=73	=73	=73	=73	=73	=73	=73
2c\]	.	0r	.	2e\	.	0r	.
2B\	.	.	.	2d\	.	.	.
2A\	.	.	.	2f\	De-	.	.
2G\	.	.	.	[2e\	.	.	.
=74	=74	=74	=74	=74	=74	=74	=74
1A	De-	0r	.	2e\]	.	0r	.
.	.	.	.	4d\	.	.	.
.	.	.	.	4c\	.	.	.
2.G\	.	.	.	4B\	.	.	.
.	.	.	.	4A/	.	.	.
.	.	.	.	[2d\	.	.	.
4A\	.	.	.	.	.	.	.
=75	=75	=75	=75	=75	=75	=75	=75
4B\	.	0r	.	2d\]	.	0r	.
4G\	.	.	.	.	.	.	.
1A	.	.	.	1c	.	.	.
4G\	.	.	.	4B\	.	.	.
4F\	.	.	.	4A/	.	.	.
=76	=76	=76	=76	=76	=76	=76	=76
4E\	.	0r	.	2.G/	.	0r	.
4D\	.	.	.	.	.	.	.
2.G\	.	.	.	.	.	.	.
.	.	.	.	4A/	.	.	.
.	.	.	.	4B\	.	.	.
4F\	.	.	.	4c\	.	.	.
2B\	.	.	.	2d\	.	.	.
=77	=77	=77	=77	=77	=77	=77	=77
2A\	.	0r	.	4c\	.	0r	.
.	.	.	.	4B\	.	.	.
1G	.	.	.	4A/	.	.	.
.	.	.	.	4G/	.	.	.
.	.	.	.	1A	.	.	.
2F#i\	.	.	.	.	.	.	.
=78	=78	=78	=78	=78	=78	=78	=78
1G	-i,	0r	.	0G	-i,	0r	.
2r	.	.	.	.	.	.	.
[2G\	Fi-	.	.	.	.	.	.
=79	=79	=79	=79	=79	=79	=79	=79
4G\]	.	0r	.	2r	.	0r	.
4A\	.	.	.	.	.	.	.
4B\	.	.	.	2.G/	Fi-	.	.
4c\	.	.	.	.	.	.	.
2d\	.	.	.	.	.	.	.
.	.	.	.	4A/	.	.	.
[2G\	-li-	.	.	4B\	.	.	.
.	.	.	.	4c\	.	.	.
=80	=80	=80	=80	=80	=80	=80	=80
4G\]	.	0r	.	2d\	-li-	0r	.
4F\	.	.	.	.	.	.	.
4E\	.	.	.	2G/	-us	.	.
4D\	.	.	.	.	.	.	.
2E\	-us	.	.	2.c\	Pa-	.	.
[2C/	Pa-	.	.	.	.	.	.
.	.	.	.	4d\	.	.	.
=81	=81	=81	=81	=81	=81	=81	=81
4C/]	.	0r	.	4e\	.	0r	.
4D\	.	.	.	4f\	.	.	.
4E\	.	.	.	1g	.	.	.
4F\	.	.	.	.	.	.	.
[1G	-tris,	.	.	.	.	.	.
.	.	.	.	4f\	.	.	.
.	.	.	.	4e\	.	.	.
=82	=82	=82	=82	=82	=82	=82	=82
1G]	.	0r	.	2d\	-tris,	0r	.
.	.	.	.	1e	[Fi-	.	.
2r	.	.	.	.	.	.	.
[2G\	[Fi-	.	.	4d\	-li-	.	.
.	.	.	.	4c\	.	.	.
=83	=83	=83	=83	=83	=83	=83	=83
2G\]	.	0r	.	4B\	.	0r	.
.	.	.	.	4A/	.	.	.
4F\	-li-	.	.	1d	-us]	.	.
4E\	.	.	.	.	.	.	.
4D\	.	.	.	.	.	.	.
4C/	.	.	.	.	.	.	.
[2F\	-us	.	.	4c\	.	.	.
.	.	.	.	4B\	.	.	.
=84	=84	=84	=84	=84	=84	=84	=84
4F\]	.	0r	.	4A/	.	0r	.
4E\	.	.	.	4G/	.	.	.
2.A\	Pa-	.	.	2.c\	Pa-	.	.
4G\	.	.	.	4B\	.	.	.
2G\	.	.	.	2e\	.	.	.
=85	=85	=85	=85	=85	=85	=85	=85
2F\	.	0r	.	4d\	.	1r	.
.	.	.	.	4c\	.	.	.
2E\	.	.	.	1c	.	.	.
1D	.	.	.	.	.	1r	.
.	.	.	.	2B\	.	.	.
=86	=86	=86	=86	=86	=86	=86	=86
0Cl	-tris.]	0r	.	0cl	-tris.	0r	.
!!LO:LB:i:g=z
=||	=||	=||	=||	=||	=||	=||	=||
*>C	*>C	*>C	*>C	*>C	*>C	*>C	*>C
*clefF4	*	*clefGv2	*	*clefGv2	*	*clefG2	*
*k[]	*	*k[]	*	*k[]	*	*k[]	*
*M2/1	*	*M2/1	*	*M2/1	*	*M2/1	*
*met(C|)	*	*met(C|)	*	*met(C|)	*	*met(C|)	*
!!section: Qui tollis
!!!OMD: Qui tollis
0r	.	0r	.	1c	Qui	1cc	Qui
.	.	.	.	2c\	tol-	2cc\	tol-
.	.	.	.	2c\	-lis	2cc\	-lis
=87	=87	=87	=87	=87	=87	=87	=87
0r	.	0r	.	1g	pec-	1dd	pec-
.	.	.	.	2g\	-ca-	2b\	-ca-
.	.	.	.	[2a\	-ta	[2cc\	-ta
=88	=88	=88	=88	=88	=88	=88	=88
0r	.	0r	.	4a\]	.	4cc\]	.
.	.	.	.	4g\	.	4b\	.
.	.	.	.	1g	.	4a/	.
.	.	.	.	.	.	4g/	.
.	.	.	.	.	.	1a	mun-
.	.	.	.	2f#i\	mun-	.	.
=89	=89	=89	=89	=89	=89	=89	=89
1C	Qui	1c	Qui	0g	-di,	0g	-di,
2C/	tol-	2c\	tol-	.	.	.	.
2C/	-lis	2c\	-lis	.	.	.	.
=90	=90	=90	=90	=90	=90	=90	=90
1G	pec-	1d	pec-	0r	.	0r	.
2G\	-ca-	2B\	-ca-	.	.	.	.
[2A\	-ta	[2c\	-ta	.	.	.	.
=91	=91	=91	=91	=91	=91	=91	=91
4A\]	.	4c\]	.	0r	.	0r	.
4G\	.	4B\	.	.	.	.	.
1G	mun-	4A/	.	.	.	.	.
.	.	4G/	.	.	.	.	.
.	.	1A	mun-	.	.	.	.
2F#i\	.	.	.	.	.	.	.
=92	=92	=92	=92	=92	=92	=92	=92
[0G	-di.	0G	-di.	0r	.	1g	mi-
.	.	.	.	.	.	2g/	-se-
.	.	.	.	.	.	2g/	-re-
=93	=93	=93	=93	=93	=93	=93	=93
0G]	.	0r	.	0r	.	1.dd	-re
.	.	.	.	.	.	[2ee\	no-
=94	=94	=94	=94	=94	=94	=94	=94
0r	.	0r	.	1c	mi-	4ee\]	.
.	.	.	.	.	.	4dd\	.
.	.	.	.	.	.	4cc\	.
.	.	.	.	.	.	4b\	.
.	.	.	.	2c\	-se-	1cc	.
.	.	.	.	2c\	-re-	.	.
=95	=95	=95	=95	=95	=95	=95	=95
0r	.	0r	.	1g	-re	2b\	.
.	.	.	.	.	.	1dd	.
.	.	.	.	2g\	no-	.	.
.	.	.	.	[2a\	.	[2cc\	.
=96	=96	=96	=96	=96	=96	=96	=96
0r	.	0r	.	4a\]	.	4cc\]	.
.	.	.	.	4g\	.	4b\	.
.	.	.	.	1g	.	4a/	.
.	.	.	.	.	.	4g/	.
.	.	.	.	.	.	1a	.
.	.	.	.	2f#i\	.	.	.
=97	=97	=97	=97	=97	=97	=97	=97
0r	.	1G	Qui	0g	-bis.	0g	-bis.
.	.	2G/	tol-	.	.	.	.
.	.	2G/	-lis	.	.	.	.
=98	=98	=98	=98	=98	=98	=98	=98
0r	.	1d	pec-	0G	.	0r	.
.	.	2d\	-ca-	.	.	.	.
.	.	[2e\	-ta	.	.	.	.
=99	=99	=99	=99	=99	=99	=99	=99
1C	Qui	4e\]	.	0r	.	0r	.
.	.	4d\	.	.	.	.	.
.	.	4c\	.	.	.	.	.
.	.	4B\	.	.	.	.	.
2C/	tol-	1c	.	.	.	.	.
2C/	-lis	.	.	.	.	.	.
=100	=100	=100	=100	=100	=100	=100	=100
1G	pec-	2B\	mun-	0r	.	0r	.
.	.	1d	.	.	.	.	.
2G\	-ca-	.	.	.	.	.	.
[2A\	-ta	[2c\	.	.	.	.	.
=101	=101	=101	=101	=101	=101	=101	=101
4A\]	.	4c\]	.	0r	.	0r	.
4G\	.	4B\	.	.	.	.	.
1G	mun-	4A/	.	.	.	.	.
.	.	4G/	.	.	.	.	.
.	.	1A	.	.	.	.	.
2F#i\	.	.	.	.	.	.	.
=102	=102	=102	=102	=102	=102	=102	=102
1G	-di,	1G	-di,	1r	.	1.dd	Su-
1r	.	1r	.	[1g	Su-	.	.
.	.	.	.	.	.	2dd\	-sci-
=103	=103	=103	=103	=103	=103	=103	=103
1.G	su-	1.B	su-	2g\]	.	1dd	-pe
.	.	.	.	2g\	-sci-	.	.
.	.	.	.	1g	-pe	2r	.
2G\	-sci-	2B\	-sci-	.	.	2dd\	de-
=104	=104	=104	=104	=104	=104	=104	=104
1G	-pe	1B	-pe	2r	.	1dd	-pre-
.	.	.	.	2g\	de-	.	.
1r	.	1r	.	2g\	-pre-	1ee	-ca-
.	.	.	.	[2a\	-ca-	.	.
=105	=105	=105	=105	=105	=105	=105	=105
0r	.	0r	.	4a\]	.	2cc\	-ti-
.	.	.	.	4g\	.	.	.
.	.	.	.	4f\	.	2.dd\	-o-
.	.	.	.	4e\	.	.	.
.	.	.	.	2f\	.	.	.
.	.	.	.	.	.	4cc\	.
.	.	.	.	2g\	-ti-	4b\	.
.	.	.	.	.	.	4a/	.
=106	=106	=106	=106	=106	=106	=106	=106
0r	.	2r	.	2d\	-o-	2b\	.
.	.	2c\	de-	1g	-nem	2cc\	-nem
.	.	1d	-pre-	.	.	1a	no-
.	.	.	.	2f#i\	no-	.	.
=107	=107	=107	=107	=107	=107	=107	=107
2r	.	1e	-ca-	1g	-stram,	1g	-stram,
2G\	de-	.	.	.	.	.	.
1A	-pre-	2c\	-ti-	1r	.	1r	.
.	.	[2f\	-o-	.	.	.	.
=108	=108	=108	=108	=108	=108	=108	=108
2F\	-ca-	4f\]	.	0r	.	0r	.
.	.	4e\	.	.	.	.	.
2.G\	-ti-	4d\	.	.	.	.	.
.	.	4c\	.	.	.	.	.
.	.	2d\	-nem	.	.	.	.
4F\	.	.	.	.	.	.	.
4E\	.	[2e\	no-	.	.	.	.
4D\	.	.	.	.	.	.	.
=109	=109	=109	=109	=109	=109	=109	=109
2E\	.	4e\]	.	0r	.	2r	.
.	.	4d\	.	.	.	.	.
2F\	-nem	1c	.	.	.	2cc\	[de-
1D	no-	.	.	.	.	1dd	-pre-
.	.	2B\	.	.	.	.	.
=110	=110	=110	=110	=110	=110	=110	=110
1C	.	2c\	.	2r	.	1ee	-ca-
.	.	2g\	.	1c	[de-	.	.
1F	.	1a	.	.	.	2cc\	-ti-
.	.	.	.	2A/	-pre-	[2ff\	-o-
=111	=111	=111	=111	=111	=111	=111	=111
2D\	.	2f\	.	1d	-ca-	4ff\]	.
.	.	.	.	.	.	4ee\	.
1G	.	2.g\	.	.	.	4dd\	.
.	.	.	.	.	.	4cc\	.
.	.	.	.	2G/	-ti-	2dd\	.
.	.	4f\	.	.	.	.	.
2C/	.	4e\	.	2g\	-o-	[2ee\	-nem
.	.	4d\	.	.	.	.	.
=112	=112	=112	=112	=112	=112	=112	=112
2c\	.	2e\	.	2e\	-nem	4ee\]	.
.	.	.	.	.	.	4dd\	.
2F\	.	2f\	.	2a\	no-	1cc	.
1G	.	1d	.	1g	.	.	.
.	.	.	.	.	.	2b\	no-
=113	=113	=113	=113	=113	=113	=113	=113
0C	-stram.	0c	-stram.	4g\	.	1cc	-stram.]
.	.	.	.	4f\	.	.	.
.	.	.	.	4e\	.	.	.
.	.	.	.	4d\	.	.	.
.	.	.	.	2e\	.	1r	.
.	.	.	.	2c\	.	.	.
=114	=114	=114	=114	=114	=114	=114	=114
2r	.	0r	.	1g	.	1.dd	Qui
1G	Qui	.	.	.	.	.	.
.	.	.	.	1G	-stram.]	.	.
2A\	se-	.	.	.	.	2dd\	se-
=115	=115	=115	=115	=115	=115	=115	=115
2B\	.	0r	.	1r	.	1dd	-des
1c	-des	.	.	.	.	.	.
.	.	.	.	1g	Qui	1dd	ad
2B\	.	.	.	.	.	.	.
=116	=116	=116	=116	=116	=116	=116	=116
1c	ad	0r	.	1.g	se-	1.ee	dex-
1C	dex-	.	.	.	.	.	.
.	.	.	.	4f\	.	4dd\	.
.	.	.	.	4e\	.	4cc\	.
=117	=117	=117	=117	=117	=117	=117	=117
1G	-te-	1r	.	4d\	.	2.b\	-te-
.	.	.	.	4c\	.	.	.
.	.	.	.	4B\	.	.	.
.	.	.	.	4A/	.	4cc\	.
1G	-ram	1d	Mi-	1G	.	4dd\	.
.	.	.	.	.	.	4cc\	.
.	.	.	.	.	.	[2dd\	-ram
=118	=118	=118	=118	=118	=118	=118	=118
1F	Pa-	1d	-se-	0A	-des	2dd\]	.
.	.	.	.	.	.	4cc\	.
.	.	.	.	.	.	4b\	.
1F	-tris,	1d	-re-	.	.	1a	Pa-
=119	=119	=119	=119	=119	=119	=119	=119
1E	.	1.e	-re	2B\	ad	0g	-tris.
.	.	.	.	2c\	dex-	.	.
2r	.	.	.	2.G/	-te-	.	.
2G\	mi-	4d\	.	.	.	.	.
.	.	4c\	.	4A/	.	.	.
=120	=120	=120	=120	=120	=120	=120	=120
2G\	-se-	2.B\	no-	4B\	.	0r	.
.	.	.	.	4c\	.	.	.
2G\	-re-	.	.	1d	-ram	.	.
.	.	4A/	.	.	.	.	.
2.D\	-re	4B\	.	.	.	.	.
.	.	4c\	.	.	.	.	.
.	.	[2d\	.	4c\	.	.	.
4E\	.	.	.	4B\	.	.	.
=121	=121	=121	=121	=121	=121	=121	=121
2F\	.	2d\]	.	2A/	Pa-	0r	.
1G	no-	4c\	.	2G/	.	.	.
.	.	4B\	.	.	.	.	.
.	.	1A	.	1d	-tris.	.	.
2F#i\	.	.	.	.	.	.	.
=122	=122	=122	=122	=122	=122	=122	=122
0G	-bis.	0G	-bis.	2r	.	1dd	Quo-
.	.	.	.	1g	Quo-	.	.
.	.	.	.	.	.	2dd\	-ni-
.	.	.	.	4f\	.	2dd\	-am
.	.	.	.	4e\	.	.	.
=123	=123	=123	=123	=123	=123	=123	=123
0r	.	0r	.	2.d\	-ni-	1dd	tu
.	.	.	.	4e\	-am	.	.
.	.	.	.	1f	tu	1dd	so-
=124	=124	=124	=124	=124	=124	=124	=124
0r	.	0r	.	2e\	so-	1.ee	-lus
.	.	.	.	2c\	-lus	.	.
.	.	.	.	1g	san-	.	.
.	.	.	.	.	.	4dd\	.
.	.	.	.	.	.	4cc\	.
=125	=125	=125	=125	=125	=125	=125	=125
2r	.	0d	Tu	1G	-ctus.	2.b\	san-
1G	Tu	.	.	.	.	.	.
.	.	.	.	.	.	4cc\	.
.	.	.	.	1r	.	4dd\	.
.	.	.	.	.	.	4cc\	.
4F\	.	.	.	.	.	[2dd\	-ctus.
4E\	.	.	.	.	.	.	.
=126	=126	=126	=126	=126	=126	=126	=126
2.D\	.	1d	so-	1r	.	2dd\]	.
.	.	.	.	.	.	4cc\	.
4E\	.	.	.	.	.	4b\	.
1F	.	1d	-lus	1A	Tu	1a	.
=127	=127	=127	=127	=127	=127	=127	=127
2E\	so-	1.e	Do-	2B\	so-	0g	.
2.C/	-lus	.	.	2.c\	-lus	.	.
4D\	.	.	.	4B\	.	.	.
4E\	.	4d\	.	[2G/	Do-	.	.
4F\	.	4c\	.	.	.	.	.
=128	=128	=128	=128	=128	=128	=128	=128
2.G\	.	2.B\	-mi-	4G/]	.	0r	.
.	.	.	.	4A/	.	.	.
.	.	.	.	4B\	.	.	.
4F\	.	4A/	.	4c\	.	.	.
2D\	Do-	4B\	.	1d	-mi-	.	.
.	.	4c\	.	.	.	.	.
[2B\	.	[2d\	.	.	.	.	.
=129	=129	=129	=129	=129	=129	=129	=129
4B\]	.	2d\]	.	1G	-nus.	0r	.
4A\	.	.	.	.	.	.	.
1G	.	4c\	.	.	.	.	.
.	.	4B\	.	.	.	.	.
.	.	1A	.	1r	.	.	.
2F#i\	-mi-	.	.	.	.	.	.
=130	=130	=130	=130	=130	=130	=130	=130
1G	-nus.	0G	-nus.	0r	.	0r	.
1r	.	.	.	.	.	.	.
=131	=131	=131	=131	=131	=131	=131	=131
0G	Tu	1r	.	0g	Tu	1.b	Tu
.	.	1d	Tu	.	.	.	.
.	.	.	.	.	.	2b\	so-
=132	=132	=132	=132	=132	=132	=132	=132
1G	so-	1d	so-	1g	so-	1b	-lus
1G	-lus	1d	-lus	1g	-lus	1b	Al-
=133	=133	=133	=133	=133	=133	=133	=133
1.A	Al-	1c	Al-	0e	Al-	2a/	-tis-
.	.	.	.	.	.	1cc	.
.	.	1A	-tis-	.	.	.	.
4G\	.	.	.	.	.	4b\	-si-
4F\	.	.	.	.	.	4a/	.
=134	=134	=134	=134	=134	=134	=134	=134
2.E\	-tis-	2B\	.	1e	-tis-	0g	-mus,
.	.	2.G/	.	.	.	.	.
4F\	.	.	.	.	.	.	.
4G\	.	.	.	[1d	.	.	.
4F\	.	4A/	.	.	.	.	.
[2G\	.	4B\	.	.	.	.	.
.	.	4c\	.	.	.	.	.
=135	=135	=135	=135	=135	=135	=135	=135
2G\]	.	4d\	.	2d\]	.	2r	.
.	.	4G/	.	.	.	.	.
4F\	.	1c	.	2e\	.	2cc\	Ie-
4E\	.	.	.	.	.	.	.
1D	-si-	.	.	2f\	.	1dd	-su
.	.	2B\	.	2d\	-si-	.	.
=136	=136	=136	=136	=136	=136	=136	=136
1C	-mus,	1c	.	0g	-mus,	1ee	Chri-
1G	Ie-	1B	.	.	.	2dd\	.
.	.	.	.	.	.	[2ee\	-ste,
=137	=137	=137	=137	=137	=137	=137	=137
1A	-su	1c	-si-	1.e	Ie-	4ee\]	.
.	.	.	.	.	.	4dd\	.
.	.	.	.	.	.	4cc\	.
.	.	.	.	.	.	4b\	.
1A	Chri-	1c	-mus,	.	.	1cc	.
.	.	.	.	2f\	-su	.	.
=138	=138	=138	=138	=138	=138	=138	=138
1.G	.	2.d\	Ie-	2.g\	Chri-	2.b\	Ie-
.	.	4c\	.	4f\	.	4a/	.
.	.	4d\	.	2g\	.	4b\	.
.	.	4e\	.	.	.	4cc\	.
2F\	.	2f\	-su	2a\	.	[2dd\	-su
=139	=139	=139	=139	=139	=139	=139	=139
2G\	.	2e\	Chri-	2g\	.	2dd\]	.
2A\	.	2c\	.	2f\	.	1cc	Chri-
1G	.	1d	.	1g	.	.	.
.	.	.	.	.	.	2b\	.
=	=	=	=	=	=	=	=
*M3/1	*	*M3/1	*	*M3/1	*	*M3/1	*
*met(3)	*	*met(3)	*	*met(3)	*	*met(3)	*
0C	-ste.	0.c	-ste.	0g	-ste.	0cc	-ste.
1r	.	.	.	1r	.	1r	.
=140	=140	=140	=140	=140	=140	=140	=140
1c	Cum	0.r	.	1e	Cum	1g	Cum
1c	San-	.	.	1e	San-	1g	San-
1c	-cto	.	.	1e	-cto	1g	-cto
=141	=141	=141	=141	=141	=141	=141	=141
1.F	Spi-	1c	Cum	0f	Spi-	0a	Spi-
.	.	1c	San-	.	.	.	.
2G\	.	.	.	.	.	.	.
1A	-ri-	1c	-cto	1f	-ri-	1a	-ri-
=142	=142	=142	=142	=142	=142	=142	=142
0G	-tu,	0d	Spi-	0g	-tu,	0b	-tu,
1r	.	1d	-ri-	1r	.	1r	.
=143	=143	=143	=143	=143	=143	=143	=143
1c	in	0e	-tu,	1e	in	1g	in
1c	glo-	.	.	1e	glo-	1g	glo-
1c	-ri-	1r	.	1e	-ri-	1g	-ri-
=144	=144	=144	=144	=144	=144	=144	=144
1.F	-a	1c	in	0f	-a	0a	-a
.	.	1c	glo-	.	.	.	.
2G\	.	.	.	.	.	.	.
1A	.	1c	-ri-	1f	De-	1a	De-
=145	=145	=145	=145	=145	=145	=145	=145
1.G	De-	0d	-a	0.g	-i	0b	-i
2A\	.	.	.	.	.	.	.
1B	.	1d	De-	.	.	1b	Pa-
=146	=146	=146	=146	=146	=146	=146	=146
1c	-i	0e	-i	1c	Pa-	1g	.
0A	.	.	.	1e	.	0cc	.
.	.	1c	Pa-	1f	.	.	.
=147	=147	=147	=147	=147	=147	=147	=147
0G	Pa-	1d	.	0g	-tris.	0b	-tris.
.	.	1e	.	.	.	.	.
1F	.	2.d\	.	1r	.	1r	.
.	.	4c\	.	.	.	.	.
=148	=148	=148	=148	=148	=148	=148	=148
1E	.	0c	.	0.r	.	0.r	.
0D	.	.	.	.	.	.	.
.	.	1B	-tris.	.	.	.	.
=	=	=	=	=	=	=	=
*M2/1	*	*M2/1	*	*M2/1	*	*M2/1	*
*met(C|)	*	*met(C|)	*	*met(C|)	*	*met(C|)	*
1C	-tris.	2.c\	A-	2r	.	0r	.
.	.	.	.	2.c\	A-	.	.
.	.	4d\	.	.	.	.	.
2r	.	4e\	.	.	.	.	.
.	.	4f\	.	4d\	.	.	.
[2C/	A-	[2g\	.	4e\	.	.	.
.	.	.	.	4f\	.	.	.
=149	=149	=149	=149	=149	=149	=149	=149
4C/]	.	2g\]	.	1.g	.	2r	.
4D\	.	.	.	.	.	.	.
4E\	.	4f\	.	.	.	2.g/	A-
4F\	.	4e\	.	.	.	.	.
2.G\	.	[1d	.	.	.	.	.
.	.	.	.	.	.	4a/	.
.	.	.	.	4f\	.	4b\	.
4A\	.	.	.	4e\	.	4cc\	.
=150	=150	=150	=150	=150	=150	=150	=150
2B\	.	2d\]	.	2d\	.	2dd\	.
2c\	.	2c\	.	1.g	-men,	2ee\	.
2B\	.	2d\	.	.	.	2dd\	.
[2c\	.	[2c\	.	.	.	[2ee\	.
=151	=151	=151	=151	=151	=151	=151	=151
4c\]	.	4c\]	.	1g	[A-	4ee\]	.
4B\	.	4d\	.	.	.	4dd\	.
2G\	.	2e\	.	.	.	2b\	.
2A\	.	2c\	.	2e\	.	2cc\	.
2F\	.	2d\	.	2f\	.	2a/	.
=152	=152	=152	=152	=152	=152	=152	=152
2G\	.	2B\	.	2d\	.	2b\	.
2.A\	.	2.A/	.	2.c\	.	2.cc\	.
4G\	.	4B\	.	4d\	.	4b\	.
2E\	.	2c\	.	2e\	.	2g/	.
=153	=153	=153	=153	=153	=153	=153	=153
2F\	.	2A/	-men,	2c\	-men,]	2a/	-men,
2D\	.	2B\	A-	2d\	A-	2f/	A-
2E\	.	2G/	.	2B\	.	2g/	.
[2F\	.	[2c\	.	[2A/	.	[2a/	.
=154	=154	=154	=154	=154	=154	=154	=154
4F\]	.	4c\]	.	4A/]	.	4a/]	.
4E\	.	4d\	.	4B\	.	4g/	.
2C/	.	4e\	.	2c\	.	2e/	.
.	.	4f\	.	.	.	.	.
2D\	.	1d	.	2A/	.	2f/	.
2BB/	.	.	.	2B\	.	2d/	.
=155	=155	=155	=155	=155	=155	=155	=155
1C	-men,	1.g	.	2G/	.	2e/	.
.	.	.	.	1c	.	2.ee\	.
2r	.	.	.	.	.	.	.
.	.	.	.	.	.	4ff\	.
2G\	A-	4f\	.	2B\	.	2gg\	.
.	.	4e\	.	.	.	.	.
=156	=156	=156	=156	=156	=156	=156	=156
2A\	.	2f\	.	2c\	.	2ff\	.
2B\	.	2g\	.	4d\	.	2dd\	.
.	.	.	.	4B\	.	.	.
2c\	.	2e\	.	2c\	.	2ee\	.
2G\	.	2g\	.	2B\	.	4dd\	.
.	.	.	.	.	.	4cc\	.
=157	=157	=157	=157	=157	=157	=157	=157
1A	.	4f\	.	1c	.	2dd\	.
.	.	4e\	.	.	.	.	.
.	.	4d\	.	.	.	1cc	.
.	.	4c\	.	.	.	.	.
1G	.	1d	.	1g	.	.	.
.	.	.	.	.	.	2b\	.
=158	=158	=158	=158	=158	=158	=158	=158
[0Cl	-men.	[0cl	-men.	1.e	.	[0ccl	-men.
.	.	.	.	4d\	.	.	.
.	.	.	.	4c\	.	.	.
=159	=159	=159	=159	=159	=159	=159	=159
0C]	.	0c]	.	0gl	-men.	0cc]	.
==	==	==	==	==	==	==	==
*-	*-	*-	*-	*-	*-	*-	*-
!!!RDF**kern: l=long note in original notation
!!!RDF**kern: i=editorial accidental
!!!ENC: Richard Freedman (CRIM)
!!!END: 2016/03/29/
!!!EED: Jesse Rodin
!!!EEV: 2016/03/30/
!!!ONB: Translated from MusicXML and edited on 2016/03/30/ by Craig Sapp
!!muse2ps: T^@{OPR}^u^@{ONM}{. }@{OTL}^C^@{COM}^i2I150v85,85,85,150Q16
